app/img/main/ic_human.svg

<svg width="89" height="79" viewBox="0 0 89 79" fill="none" xmlns="http://www.w3.org/2000/svg">
    <rect width="89" height="79" rx="20" fill="url(#paint0_linear)"/>
    <rect x="0.5" y="0.5" width="88" height="78" rx="19.5" stroke="#FAFAFA" stroke-opacity="0.1"/>
    <path d="M35.5154 46.4526V50.2526C35.5154 50.8526 35.9154 51.2526 36.5154 51.2526H52.6154C53.2154 51.2526 53.6154 50.8526 53.6154 50.2526V46.4526C53.6154 43.6526 51.4154 41.4526 48.6154 41.4526H40.5154C37.7154 41.4526 35.5154 43.7526 35.5154 46.4526ZM37.5154 46.4526C37.5154 44.7526 38.8154 43.4526 40.5154 43.4526H48.6154C50.3154 43.4526 51.6154 44.7526 51.6154 46.4526V49.2526H37.5154V46.4526Z"
          fill="#022AF0"/>
    <path d="M44.6153 39.9527C47.6153 39.9527 49.9153 36.9527 49.9153 34.2527C49.9153 31.4527 47.5153 29.0527 44.6153 29.0527C41.7153 29.0527 39.3153 31.3527 39.3153 34.2527C39.3153 36.9527 41.5153 39.9527 44.6153 39.9527ZM44.6153 31.0527C46.4153 31.0527 47.9153 32.4527 47.9153 34.2527C47.9153 35.9527 46.5153 37.9527 44.6153 37.9527C42.7153 37.9527 41.3153 35.9527 41.3153 34.2527C41.3153 32.4527 42.7153 31.0527 44.6153 31.0527Z"
          fill="#022AF0"/>
    <path d="M56.0153 57.5526C49.0153 62.0526 40.0153 62.0526 33.0153 57.5526H32.9153L36.9153 57.2526C37.5153 57.2526 37.9153 56.7526 37.8153 56.1526C37.7153 55.5526 37.3153 55.1526 36.7153 55.2526L31.0153 55.6526C30.7153 55.6526 30.5153 55.7526 30.3153 55.9526C30.1153 56.1526 30.0153 56.4526 30.1153 56.6526L30.5153 62.3526C30.5153 62.8526 31.0153 63.2526 31.5153 63.2526C31.5153 63.2526 31.5153 63.2526 31.6153 63.2526C32.2153 63.2526 32.6153 62.7526 32.5153 62.1526L32.3153 59.4526C40.0153 64.1526 49.6153 63.9526 57.0153 59.1526C57.5153 58.8526 57.6153 58.2526 57.3153 57.7526C57.1153 57.3526 56.5153 57.2526 56.0153 57.5526Z"
          fill="white" stroke="white" stroke-width="0.5"/>
    <path d="M27.7153 25.4527L22.1153 24.8527C21.5153 24.7527 21.1153 25.1527 21.0153 25.7527C20.9153 26.2527 21.3153 26.7527 21.9153 26.8527L24.5153 27.1527C22.3153 30.8527 21.1153 35.0527 21.1153 39.3527C21.1153 43.8527 22.4153 48.1527 24.7153 51.9527C25.0153 52.4527 25.6153 52.5527 26.1153 52.2527C26.6153 51.9527 26.7153 51.3527 26.4153 50.8527C24.2153 47.4527 23.1153 43.4527 23.1153 39.3527C23.1153 35.2527 24.2153 31.2527 26.4153 27.8527C26.4153 27.8527 26.4153 27.8527 26.4153 27.7527L26.0153 31.7527C25.9153 32.2527 26.3153 32.7527 26.9153 32.8527H27.0153C27.5153 32.8527 27.9153 32.4527 28.0153 31.9527L28.6153 26.5527C28.6153 26.0527 28.2153 25.5527 27.7153 25.4527Z"
          fill="white" stroke="white" stroke-width="0.5"/>
    <path d="M58.2154 15.7526C58.1154 15.2526 57.5154 14.8526 57.0154 15.0526C56.5154 15.1526 56.1154 15.7526 56.3154 16.2526L57.1154 19.3526C53.3154 16.9526 49.0154 15.7526 44.6154 15.7526C40.1154 15.7526 35.8154 17.0526 32.0154 19.4526C31.5154 19.7526 31.4154 20.3526 31.7154 20.8526C32.0154 21.3526 32.6154 21.4526 33.1154 21.1526C36.5154 18.9526 40.5154 17.8526 44.6154 17.8526C48.7154 17.8526 52.7154 19.0526 56.1154 21.1526H56.2154L53.0154 21.9526C52.4154 22.1526 52.1154 22.6526 52.2154 23.1526C52.3154 23.6526 52.7154 23.8526 53.2154 23.8526C53.3154 23.8526 53.4154 23.8526 53.5154 23.8526L59.0154 22.4526C59.5154 22.3526 59.9154 21.7526 59.7154 21.2526L58.2154 15.7526Z"
          fill="white" stroke="white" stroke-width="0.5"/>
    <path d="M67.4153 52.0524L64.5153 51.7524C66.8153 48.0524 68.1153 43.7524 68.1153 39.3524C68.1153 34.8524 66.8153 30.5524 64.5153 26.7524C64.2153 26.2524 63.6153 26.1524 63.1153 26.4524C62.6153 26.7524 62.5153 27.3524 62.8153 27.8524C65.0153 31.2524 66.1153 35.2524 66.1153 39.3524C66.1153 43.3524 65.0153 47.2524 62.9153 50.6524L63.3153 46.9524C63.4153 46.4524 63.0153 45.9524 62.4153 45.8524C61.9153 45.8524 61.4153 46.1524 61.3153 46.7524L60.7153 52.4524C60.7153 52.7524 60.8153 52.9524 60.9153 53.1524C61.1153 53.3524 61.3153 53.4524 61.6153 53.5524L67.2153 54.1524H67.3153C67.8153 54.1524 68.2153 53.7524 68.3153 53.2524C68.3153 52.5524 67.9153 52.0524 67.4153 52.0524Z"
          fill="white" stroke="white" stroke-width="0.5"/>
    <defs>
        <linearGradient id="paint0_linear" x1="30" y1="13" x2="105" y2="99" gradientUnits="userSpaceOnUse">
            <stop stop-color="#5DD4E8"/>
            <stop offset="1" stop-color="#76F3B5"/>
        </linearGradient>
    </defs>
</svg>

<svg width="89" height="79" fill="none" xmlns="http://www.w3.org/2000/svg"><rect width="89" height="79" rx="20" fill="url(#a)"/><rect x=".5" y=".5" width="88" height="78" rx="19.5" stroke="#FAFAFA" stroke-opacity=".1"/><path d="M35.515 46.453v3.8c0 .6.4 1 1 1h16.1c.6 0 1-.4 1-1v-3.8c0-2.8-2.2-5-5-5h-8.1c-2.8 0-5 2.3-5 5Zm2 0c0-1.7 1.3-3 3-3h8.1c1.7 0 3 1.3 3 3v2.8h-14.1v-2.8ZM44.615 39.953c3 0 5.3-3 5.3-5.7 0-2.8-2.4-5.2-5.3-5.2s-5.3 2.3-5.3 5.2c0 2.7 2.2 5.7 5.3 5.7Zm0-8.9c1.8 0 3.3 1.4 3.3 3.2 0 1.7-1.4 3.7-3.3 3.7s-3.3-2-3.3-3.7c0-1.8 1.4-3.2 3.3-3.2Z" fill="#022AF0"/><path d="M56.015 57.553c-7 4.5-16 4.5-23 0h-.1l4-.3c.6 0 1-.5.9-1.1-.1-.6-.5-1-1.1-.9l-5.7.4c-.3 0-.5.1-.7.3-.2.2-.3.5-.2.7l.4 5.7c0 .5.5.9 1 .9h.1c.6 0 1-.5.9-1.1l-.2-2.7c7.7 4.7 17.3 4.5 24.7-.3.5-.3.6-.9.3-1.4-.2-.4-.8-.5-1.3-.2ZM27.715 25.453l-5.6-.6c-.6-.1-1 .3-1.1.9-.1.5.3 1 .9 1.1l2.6.3c-2.2 3.7-3.4 7.9-3.4 12.2 0 4.5 1.3 8.8 3.6 12.6.3.5.9.6 1.4.3.5-.3.6-.9.3-1.4-2.2-3.4-3.3-7.4-3.3-11.5s1.1-8.1 3.3-11.5v-.1l-.4 4c-.1.5.3 1 .9 1.1h.1c.5 0 .9-.4 1-.9l.6-5.4c0-.5-.4-1-.9-1.1ZM58.215 15.753c-.1-.5-.7-.9-1.2-.7-.5.1-.9.7-.7 1.2l.8 3.1c-3.8-2.4-8.1-3.6-12.5-3.6-4.5 0-8.8 1.3-12.6 3.7-.5.3-.6.9-.3 1.4.3.5.9.6 1.4.3 3.4-2.2 7.4-3.3 11.5-3.3s8.1 1.2 11.5 3.3h.1l-3.2.8c-.6.2-.9.7-.8 1.2.1.5.5.7 1 .7h.3l5.5-1.4c.5-.1.9-.7.7-1.2l-1.5-5.5ZM67.415 52.052l-2.9-.3c2.3-3.7 3.6-8 3.6-12.4 0-4.5-1.3-8.8-3.6-12.6-.3-.5-.9-.6-1.4-.3-.5.3-.6.9-.3 1.4 2.2 3.4 3.3 7.4 3.3 11.5 0 4-1.1 7.9-3.2 11.3l.4-3.7c.1-.5-.3-1-.9-1.1-.5 0-1 .3-1.1.9l-.6 5.7c0 .3.1.5.2.7.2.2.4.3.7.4l5.6.6h.1c.5 0 .9-.4 1-.9 0-.7-.4-1.2-.9-1.2Z" fill="#fff" stroke="#fff" stroke-width=".5"/><defs><linearGradient id="a" x1="30" y1="13" x2="105" y2="99" gradientUnits="userSpaceOnUse"><stop stop-color="#5DD4E8"/><stop offset="1" stop-color="#76F3B5"/></linearGradient></defs></svg>
